X:1
T:Irishman's Heart to the Ladies -- Jig
R:jig
B:Ryan's Mammoth Collection
N: 84 431
Z: Contributed by Ray Davies,  ray:davies99.freeserve.co.uk
M:6/8
L:1/8
K:A
uka|\
ecA BAF | AFE EFA | Bdc BAB | cBB B2ka |
ecA BAF | AFE EFA | Bdc BAB | cAA A2 :|
|:uA|\
Aee dff | cee ecA | cde eaf | ecA B2A |
cee dff | cee ecA | Bdc BAB | cAA A2 :|
